brandFactory_export/1.Light/Blog_1Light.svg

<?xml version="1.0" encoding="UTF-8"?>
<svg width="24px" height="24px" viewBox="0 0 24 24" version="1.1" xmlns="http://www.w3.org/2000/svg" xmlns:xlink="http://www.w3.org/1999/xlink">
    <title>1.Light/Blog_1Light</title>
    <g id="Symbols" stroke="none" stroke-width="1" fill="none" fill-rule="evenodd">
        <g id="1.Light/Blog_1Light" fill="#5CB615" fill-rule="nonzero">
            <path d="M16.1411765,0.0268907563 C17.5428571,0.0268907563 18.6252101,0.423529412 19.3680672,1.20672269 C20.0672269,1.94621849 20.4235294,2.98823529 20.4235294,4.30588235 L20.4233107,9.82914922 C20.9156101,9.42923415 21.4251127,9.36797589 21.7848739,9.39495798 C22.8571429,9.47226891 23.687395,10.3630252 23.687395,11.4386555 C23.687395,11.9596639 23.4756303,12.4403361 23.0823529,12.8302521 C22.9185748,12.9913007 21.7600761,14.0257083 20.4234118,15.2138986 L20.4235294,19.2941176 C20.4235294,20.6117647 20.0705882,21.6537815 19.3680672,22.3932773 C18.6252101,23.1764706 17.5394958,23.5731092 16.1378151,23.5731092 L4.30588235,23.5731092 C2.90420168,23.5731092 1.82184874,23.1764706 1.0789916,22.3932773 C0.379831932,21.6537815 0.0235294115,20.6117647 0.0235294115,19.2941176 L0.0235294115,4.30588235 C0.026890756,2.99159664 0.383193277,1.94957983 1.08235294,1.20672269 C1.82184874,0.423529412 2.90756302,0.0268907563 4.3092437,0.0268907563 L16.1411765,0.0268907563 Z M16.1445378,0.699159664 L4.31260504,0.699159664 C1.33109244,0.699159664 0.705882353,2.66218487 0.705882353,4.30588235 L0.705882353,19.2941176 C0.705882353,20.9411765 1.33109244,22.9008403 4.31260504,22.9008403 L16.1445378,22.9008403 C19.1260504,22.9008403 19.7512605,20.9378151 19.7512605,19.2941176 L19.7509324,15.8113335 C17.9686699,17.3938807 16.1132272,19.0354881 15.9697479,19.1630252 C15.9361345,19.1932773 15.8957983,19.2168067 15.8521008,19.2302521 L12.302521,20.4 C12.2655462,20.4134454 12.2319328,20.4168067 12.194958,20.4201681 C12.010084,20.4201681 11.8588235,20.2689076 11.8588235,20.0840336 C11.8588235,20.0470588 11.8655462,20.010084 11.8756303,19.9764706 L12.3885294,18.4468908 L4.30588235,18.4470588 C4.1210084,18.4470588 3.9697479,18.2957983 3.9697479,18.1109244 C3.9697479,17.9260504 4.1210084,17.7747899 4.30588235,17.7747899 L12.6145294,17.7738908 L13.0655462,16.4302521 C13.0857143,16.3731092 13.1159664,16.3226891 13.1630252,16.2857143 C13.8131703,15.7120013 14.6323166,14.9886243 15.4811109,14.237982 L4.30588235,14.2386555 C4.1210084,14.2386555 3.9697479,14.087395 3.9697479,13.902521 C3.9697479,13.7176471 4.1210084,13.5663866 4.30588235,13.5663866 L16.1983193,13.5663866 L16.2354584,13.5705713 C17.6497911,12.3186468 19.0328501,11.0908343 19.7520181,10.4427837 L19.7512605,4.30588235 C19.7512605,2.65882353 19.1260504,0.699159664 16.1445378,0.699159664 Z M20.7193277,10.4638655 C20.3361345,10.8504202 14.4201681,16.0739496 13.6739496,16.7294118 L12.7260504,19.5529412 L15.5731092,18.6117647 C17.902521,16.5512605 22.2957983,12.6554622 22.6084034,12.3495798 C22.8773109,12.0840336 23.0151261,11.7781513 23.0151261,11.4352941 C23.0117647,11.0722689 22.8672269,10.7226891 22.6117647,10.4638655 C22.3764706,10.2319328 22.0638655,10.0907563 21.7344538,10.0638655 C21.4722689,10.0436975 21.0857143,10.097479 20.7193277,10.4638655 Z M16.1378151,9.36134454 C16.3226891,9.36134454 16.4739496,9.51260504 16.4739496,9.69747899 C16.4739496,9.88235294 16.3226891,10.0336134 16.1378151,10.0336134 L4.30588235,10.0336134 C4.1210084,10.0336134 3.9697479,9.88235294 3.9697479,9.69747899 C3.9697479,9.51260504 4.1210084,9.36134454 4.30588235,9.36134454 L16.1378151,9.36134454 Z M16.1378151,5.15294118 C16.3226891,5.15294118 16.4739496,5.30420168 16.4739496,5.48907563 C16.4739496,5.67394958 16.3226891,5.82521008 16.1378151,5.82521008 L4.30588235,5.82521008 C4.1210084,5.82521008 3.9697479,5.67394958 3.9697479,5.48907563 C3.9697479,5.30420168 4.1210084,5.15294118 4.30588235,5.15294118 L16.1378151,5.15294118 Z" id="Blog_1Light"></path>
        </g>
    </g>
</svg>

<svg width="24" height="24" viewBox="0 0 24 24" xmlns="http://www.w3.org/2000/svg"><path d="M16.141.027c1.402 0 2.484.397 3.227 1.18.7.74 1.056 1.781 1.056 3.099v5.523a1.895 1.895 0 011.36-.434 2.049 2.049 0 011.903 2.044c0 .52-.211 1.001-.605 1.391-.163.161-1.322 1.196-2.659 2.384v4.08c0 1.318-.352 2.36-1.055 3.1-.743.782-1.829 1.18-3.23 1.18H4.306c-1.402 0-2.484-.398-3.227-1.18-.7-.74-1.055-1.782-1.055-3.1V4.306c.003-1.314.36-2.356 1.058-3.1C1.822.425 2.908.027 4.31.027h11.832zm.004.672H4.313C1.33.7.706 2.662.706 4.306v14.988c0 1.647.625 3.607 3.607 3.607h11.832c2.981 0 3.606-1.963 3.606-3.607v-3.483c-1.782 1.583-3.638 3.224-3.781 3.352a.316.316 0 01-.118.067l-3.55 1.17a.405.405 0 01-.107.02.337.337 0 01-.32-.444l.514-1.53-8.083.001a.337.337 0 01-.336-.336c0-.185.151-.336.336-.336l8.309-.001.45-1.344a.308.308 0 01.098-.144c.65-.574 1.47-1.297 2.318-2.048H4.306a.337.337 0 01-.336-.335c0-.185.151-.337.336-.337h11.892l.037.005a669.681 669.681 0 003.517-3.128V4.306c0-1.647-.626-3.607-3.607-3.607zm4.574 9.765c-.383.386-6.299 5.61-7.045 6.265l-.948 2.824 2.847-.941c2.33-2.06 6.723-5.957 7.035-6.262.27-.266.407-.572.407-.915a1.403 1.403 0 00-.403-.971 1.416 1.416 0 00-.878-.4c-.262-.02-.648.033-1.015.4zM16.138 9.36c.185 0 .336.152.336.336a.337.337 0 01-.336.337H4.306a.337.337 0 01-.336-.337c0-.184.151-.336.336-.336h11.832zm0-4.208c.185 0 .336.151.336.336a.337.337 0 01-.336.336H4.306a.337.337 0 01-.336-.336c0-.185.151-.336.336-.336h11.832z" fill="#5CB615" fill-rule="nonzero"/></svg>
